modules/themify-icons/icons/signal.svg

<?xml version="1.0" encoding="utf-8"?>
<!-- Generated by IcoMoon.io -->
<!DOCTYPE svg PUBLIC "-//W3C//DTD SVG 1.1//EN" "http://www.w3.org/Graphics/SVG/1.1/DTD/svg11.dtd">
<svg version="1.1" xmlns="http://www.w3.org/2000/svg" xmlns:xlink="http://www.w3.org/1999/xlink" width="17" height="17" viewBox="0 0 17 17">
<g>
</g>
	<path d="M11.5 4c0-1.654-1.346-3-3-3s-3 1.346-3 3c0 1.483 1.084 2.71 2.5 2.949v8.051h-2v1h5v-1h-2v-8.051c1.416-0.239 2.5-1.466 2.5-2.949zM6.5 4c0-1.103 0.897-2 2-2s2 0.897 2 2-0.897 2-2 2-2-0.897-2-2zM4.504 2.192c-0.378 0.46-0.577 1.004-0.577 1.574s0.199 1.114 0.577 1.574l-0.774 0.636c-0.525-0.641-0.803-1.405-0.803-2.209s0.278-1.569 0.803-2.209l0.774 0.634zM2 3.767c0 1.079 0.387 2.096 1.119 2.938l-0.754 0.656c-0.881-1.012-1.365-2.29-1.365-3.594s0.484-2.582 1.365-3.595l0.754 0.656c-0.732 0.843-1.119 1.86-1.119 2.939zM14.073 3.767c0 0.805-0.278 1.568-0.804 2.209l-0.773-0.635c0.378-0.46 0.577-1.004 0.577-1.574s-0.199-1.114-0.577-1.574l0.773-0.635c0.526 0.64 0.804 1.404 0.804 2.209zM16 3.767c0 1.305-0.484 2.582-1.365 3.595l-0.754-0.656c0.732-0.844 1.119-1.86 1.119-2.939s-0.387-2.096-1.119-2.938l0.754-0.656c0.881 1.012 1.365 2.289 1.365 3.594z" fill="#000000" />
</svg>

<svg xmlns="http://www.w3.org/2000/svg" width="17" height="17" viewBox="0 0 17 17"><path d="M11.5 4c0-1.654-1.346-3-3-3s-3 1.346-3 3A2.997 2.997 0 0 0 8 6.949V15H6v1h5v-1H9V6.949A2.997 2.997 0 0 0 11.5 4zm-5 0c0-1.103.897-2 2-2s2 .897 2 2-.897 2-2 2-2-.897-2-2zM4.504 2.192c-.378.46-.577 1.004-.577 1.574s.199 1.114.577 1.574l-.774.636c-.525-.641-.803-1.405-.803-2.209s.278-1.569.803-2.209l.774.634zM2 3.767c0 1.079.387 2.096 1.119 2.938l-.754.656C1.484 6.349 1 5.071 1 3.767S1.484 1.185 2.365.172l.754.656C2.387 1.671 2 2.688 2 3.767zm12.073 0a3.45 3.45 0 0 1-.804 2.209l-.773-.635c.378-.46.577-1.004.577-1.574s-.199-1.114-.577-1.574l.773-.635c.526.64.804 1.404.804 2.209zm1.927 0a5.49 5.49 0 0 1-1.365 3.595l-.754-.656C14.613 5.862 15 4.846 15 3.767s-.387-2.096-1.119-2.938l.754-.656A5.485 5.485 0 0 1 16 3.767z"/></svg>
